packages/foundations/assets/icons/functional/images/date & time/alarm_clock_14.svg

<svg width="14" height="14" viewBox="0 0 14 14" fill="none" xmlns="http://www.w3.org/2000/svg">
<g clip-path="url(#clip0_185_639)">
<path fill-rule="evenodd" clip-rule="evenodd" d="M10.4556 1.40002C11.4778 1.40002 12.3444 2.35562 12.3444 3.28888C12.3444 3.93336 11.9889 4.55558 11.4555 4.88888C11.7445 5.53336 11.9 6.24447 11.9 6.97784C11.9 8.13339 11.5222 9.1778 10.8778 10.0222L11.7889 11.4889C11.8555 11.6001 11.9 11.7333 11.9 11.8667C11.9 12.2667 11.6333 12.5778 11.2333 12.5778C10.9889 12.5778 10.7667 12.4667 10.6334 12.2445L9.83336 11C9.03336 11.5555 8.05558 11.8889 7.0111 11.8889C5.96669 11.8889 4.98891 11.5555 4.18891 11.0222L3.38891 12.2667C3.25558 12.4667 3.05554 12.6 2.83332 12.6C2.43332 12.6 2.12221 12.3334 2.12221 11.9334C2.12221 11.8 2.14447 11.6444 2.23336 11.5112L3.14443 10.0444C2.52221 9.20006 2.12221 8.13339 2.12221 6.97784C2.12221 6.26673 2.2778 5.55562 2.56665 4.91114C2.01113 4.55558 1.65558 3.95562 1.65558 3.31114C1.65558 2.26673 2.50002 1.40002 3.49999 1.40002C4.23336 1.40002 4.94447 1.82228 5.25558 2.4445C5.83336 2.20002 6.36669 2.11114 7.0111 2.11114C7.63332 2.11114 8.18891 2.17784 8.76669 2.3778C9.09999 1.77777 9.74447 1.40002 10.4556 1.40002ZM7.03232 3.48891C5.08734 3.48891 3.49999 5.07619 3.49999 7.02125C3.49999 8.96631 5.08734 10.5536 7.03232 10.5536C8.97738 10.5536 10.5647 8.96631 10.5647 7.02125C10.5647 5.07619 8.97738 3.48891 7.03232 3.48891ZM7.70002 4.57784V6.73336L8.94447 7.93336L7.96669 8.95558L6.32225 7.33339V4.57784H7.70002Z" fill="#1A1C1F"/>
</g>
<defs>
<clipPath id="clip0_185_639">
<rect width="14" height="14" fill="white"/>
</clipPath>
</defs>
</svg>

<svg xmlns="http://www.w3.org/2000/svg" width="14" height="14" fill="none"><g clip-path="url(#a)"><path fill="#1A1C1F" fill-rule="evenodd" d="M10.456 1.4c1.022 0 1.888.956 1.888 1.889 0 .644-.355 1.267-.888 1.6.289.644.444 1.355.444 2.089 0 1.155-.378 2.2-1.022 3.044l.91 1.467a.75.75 0 0 1 .112.378c0 .4-.267.71-.667.71a.68.68 0 0 1-.6-.332L9.833 11a4.95 4.95 0 0 1-2.822.889 5.1 5.1 0 0 1-2.822-.867l-.8 1.245c-.133.2-.333.333-.556.333-.4 0-.71-.267-.71-.667 0-.133.021-.289.11-.422l.911-1.467a5.2 5.2 0 0 1-1.022-3.066c0-.711.156-1.422.445-2.067-.556-.355-.911-.955-.911-1.6C1.656 2.267 2.5 1.4 3.5 1.4c.733 0 1.444.422 1.756 1.045.577-.245 1.11-.334 1.755-.334.622 0 1.178.067 1.756.267.333-.6.977-.978 1.689-.978M7.032 3.489A3.54 3.54 0 0 0 3.5 7.02a3.54 3.54 0 0 0 3.532 3.533 3.54 3.54 0 0 0 3.533-3.533A3.54 3.54 0 0 0 7.032 3.49M7.7 4.578v2.155l1.244 1.2-.977 1.023-1.645-1.623V4.578z" clip-rule="evenodd"/></g><defs><clipPath id="a"><path fill="#fff" d="M0 0h14v14H0z"/></clipPath></defs></svg>
